X:1
T:Title
%%score { 1 | 2 }
L:1/8
M:6/8
K:Eb
V:1 treble nm="Grand Piano"
V:2 bass 
V:1
 z3 z2[Q:1/4=81] E/F/ | GGG GFE | [A,CE][CEA][CEA] [CEA]2 [EAc] | [GB][_G=A][=GB] [Ge][GB][EG] | %4
 [DF]3- [DF]2 E/F/ | GGG GFE | EAA A2 c | BeB dcd |[M:5/8] [Ge]-[Ge]- [Ge]3 |[M:1/8] [EG]/[EG]/ | %10
[M:3/4] [DF][DF] [DF][DF] [CE][DF] | GG G G2 B | =AA AA Bc |[M:5/8] [DB]-[DB]- [DB]3 | %14
[M:1/8] G/[FA]/ |[M:3/4] [GB][GB] [GB] c2 c/c/ | dd d [Ge]2 c | BG E[CEA] [B,EG][A,DF] | %18
[M:5/8] [G,E]-[G,E]- [G,E]3 |] %19
V:2
 z3 z2 [E,G,]/[E,A,E]/ | [E,B,E][E,B,E][E,B,E] [E,B,E][E,A,D][E,G,] | A,,A,,A,, A,,2 A,, | %3
 [E,E][E,E][E,E] [E,B,][E,E][E,B,] | [B,,B,]3- [B,,B,]2 [E,G,]/[E,A,E]/ | %5
 [E,B,E][E,B,E][E,B,E] [E,B,E][F,B,D][G,B,] | [A,C][A,CE][A,CE] [A,CE]2 [A,EA] | %7
 [B,EG][B,EG][B,EG] [B,A][B,A][B,A] |[M:5/8][K:bass] [E,B,]-[E,B,]- [E,B,]3 | %9
[M:1/8] [E,B,]/[E,B,]/ |[M:3/4] [B,,B,][B,,B,] [B,,B,] [B,,B,]2 [B,,B,] | %11
 [E,B,E][E,B,E] [E,B,E] [E,B,E]2 [E,G,E] | [F,E][F,E] [F,E][F,C] [F,D][F,E] | %13
[M:5/8] [B,,F,]-[B,,F,]- [B,,F,]3 |[M:1/8] [E,E]/[E,E]/ | %15
[M:3/4] [E,E][E,E] [E,E][K:treble] [A,EA]2 [A,EA]/[A,EA]/ | %16
 [B,A][B,A] [B,A][K:bass] [E,B,]2 [A,E] | [G,B,E][E,B,E] [C,C]A,, B,,B,, |[M:5/8] E,-E,- E,3 |] %19

